X:1
T:Blue Monday
M:3/4
L:1/4
K:G
G A B | G2 E | G/2 G3/2 G | D z D | G A B | G F2 | E2 z | z2 E | F F F | F E D |\
G/2 G3/2 G | G2 z | A/2 A3/2 E | A B2 | A3 | z2 D | G- A B | G2 E | G3 | D2 z |\
E2 E | A B2 | c3 | z2 E | F F2 | F2 E/2D/2 | G2 G | A B c | d2 B | A- G A |\
G3 | z2 D/2D/2 | G A B | G2 E | G3 | D2 z | G A B | G2 F | E3 | z2 E | F2 F |\
F E D | G/2 G3/2 G | G A B | A2 E | A A/2- B3/2 | A3 | z2 D | G A B | G2 E |\
G3 | D2 D | E E2 | A2 B | c3 | z2 E | F3/2 F/2 F | F/2 E3/2 D | G G G | A/2 B3/2 c |\
d2 B | A G A | G3 |]
